X: 10
T: No_19_Mother's_Song_to_a_Baby.krn
N: Derived from No_19_Mother's_Song_to_a_Baby.krn
%%abc-version 2.0
%%abcx-abcm2ps-target-version 5.9.1 (29 Sep 2008)
%%abc-creator hum2abc beta
%%abcx-conversion-date 2019/03/15 08:25:35
%%humdrum-veritas 2687263547
%%humdrum-veritas-data 3647386016
%%linebreak <none>
%%barnumbers 0
L: 1/4
M: 2/4
K: Db clef=bass
[K:clef=bass][M:2/4]A,/F,/F, | 
A,/F,/F, | 
F,F, | 
[M:3/4]F,F,D ]|:  
[M:2/4]FF | 
F/C/C | 
DD/B,/ | 
B,/F,/F, | 
F,F, | 
B,B,/F,/ | 
[M:3/4]F,F,F, | 
[M:2/4]D,F, | 
G,/F,/F, | 
F,F, | 
zF, | 
G,/F,/F, | 
F,F, | 
D,F, | 
D/B,/ B,/F,/ | 
B,/F,/F, | 
F,z | 
F,F, | 
[M:3/4]F,F,3/F,/ | 
B,3/B,/!fermata!F, | 
[M:2/4]F,F, | 
D,F, | 
D,F, | 
G,/F,/F, | 
F,F, | 
D,F, | 
B,/A,/B, | 
B,/F,/F, | 
F,z | 
F,F, | 
F,F, | 
(B,/F,/)F, | 
F,F, | 
G,G, | 
[M:4/4]G,F,F,F, | 
[M:2/4]F,F, | 
[M:3/4]z2D [I:setbarnb 42]:|]  
 [K:F] [M:2/4]z2 ]|:  
FF | 
AA | 
A/G/ G/F/ | 
G/F/F | 
F/D/ D/C/ | 
D/B,/B, | 
B,B, | 
F,B, | 
B,F, | 
F,F, | 
D,F, | 
G,/F,/F, | 
F,F, | 
D,F, | 
B,B,/F,/ | 
B,/F,/F, | 
F,z | 
F,F, | 
F,F, :|]  
B,/F,/F, | 
F,F, | 
F,F, | 
F,F, | 
[M:3/4]F,F,z | 
[M:2/4]F,F, | 
F,D | 



